X:85
T: DIE DONAU IST INS WASSER GFALLN
N: E1113A
O: Europa, Mitteleuropa, Deutschland, Hessen, Kreis Wetzlar; Taunus
R: Luegen - Lied, Maerchen
M: 2/4
L: 1/8
K: G
D | GGGA | BBB
B | ABcF | G2z
A | AGFG | AFF
A | AGFG | AFF
D | GGGB | d3
c | BBAA | G2z

